outputs/icons/hardware/headphones_sharp.svg

<svg xmlns="http://www.w3.org/2000/svg" width="1200" height="1200" fill="none"><g clip-path="url(#a)"><path fill="#000" d="M600 150c-248.5 0-450 201.5-450 450v450h300V650H250v-50c0-193.5 156.5-350 350-350s350 156.5 350 350v50H750v400h300V600c0-248.5-201.5-450-450-450"/></g><defs><clipPath id="a"><path fill="#fff" d="M0 0h1200v1200H0z"/></clipPath></defs></svg>

<svg width="1200" height="1200" viewBox="0 0 1200 1200" fill="none" xmlns="http://www.w3.org/2000/svg"><g clip-path="url(#clip0_133_30)"><path d="M600 150C351.5 150 150 351.5 150 600V1050H450V650H250V600C250 406.5 406.5 250 600 250C793.5 250 950 406.5 950 600V650H750V1050H1050V600C1050 351.5 848.5 150 600 150Z" fill="#1D1E23"/></g><defs><clipPath id="clip0_133_30"><path width="24" fill="white" d="M0 0H1200V1200H0V0z"/></clipPath></defs></svg>
